src/assets/tokens/weiBERA.svg

<svg width="40" height="40" viewBox="0 0 40 40" fill="none" xmlns="http://www.w3.org/2000/svg">
<g clip-path="url(#clip0_33765_42578)">
<path d="M20 40C31.0457 40 40 31.0457 40 20C40 8.9543 31.0457 0 20 0C8.9543 0 0 8.9543 0 20C0 31.0457 8.9543 40 20 40Z" fill="black"/>
<path d="M35.5859 20C35.5859 28.6079 28.6079 35.5859 20 35.5859C11.3921 35.5859 4.41406 28.6079 4.41406 20C4.41406 11.3921 11.3921 4.41406 20 4.41406C28.6079 4.41406 35.5859 11.3921 35.5859 20Z" fill="black" stroke="#C63E73" stroke-width="0.5"/>
<path fill-rule="evenodd" clip-rule="evenodd" d="M30.3429 16.3097C30.3564 17.5579 29.8948 18.7646 29.0516 19.685C29.0168 19.723 28.9911 19.7684 28.9763 19.8177C28.9615 19.867 28.958 19.919 28.9662 19.9699C29.5197 23.0804 28.7041 25.6383 27.0254 27.4612C25.2623 29.3744 22.6759 30.3268 20.1664 30.379H20.0762C17.5677 30.3268 14.9813 29.3735 13.2172 27.4603C11.5395 25.6383 10.7239 23.0804 11.2765 19.9699C11.2846 19.919 11.2812 19.867 11.2664 19.8177C11.2516 19.7684 11.2258 19.723 11.191 19.685C10.5271 18.9589 10.0961 18.0504 9.95397 17.0768C9.81179 16.1032 9.96489 15.1093 10.3935 14.2237C11.2793 12.3912 13.5201 10.9603 15.814 11.4389C15.89 11.4547 15.9824 11.4784 16.0913 11.5101C16.4321 11.6107 16.7464 11.7826 17.0218 12.0038C17.6351 12.4928 18.7612 12.8203 20.0487 12.8203H20.1949C21.4824 12.8203 22.6085 12.4937 23.2209 12.0038C23.4972 11.7835 23.8115 11.6107 24.1514 11.5101C24.2432 11.4828 24.336 11.4591 24.4296 11.4389C26.7235 10.9613 28.9643 12.3921 29.8501 14.2237C30.1682 14.876 30.3353 15.5909 30.3429 16.3097ZM15.288 14.4553C15.5814 14.5095 15.8615 14.6206 16.116 14.7801C16.5385 15.0459 16.4435 15.627 16.0391 15.9175L13.9692 17.3978C13.5647 17.6883 12.9742 17.5972 12.8469 17.1196C12.7707 16.835 12.7504 16.5384 12.7871 16.2461C12.8251 15.9546 12.92 15.6792 13.0644 15.4324C13.2096 15.1864 13.4043 14.9719 13.6369 14.8076C13.8695 14.6433 14.1354 14.5266 14.4174 14.4658C14.7039 14.4039 15 14.4003 15.288 14.4553ZM26.4652 14.8066C26.6984 14.9749 26.8943 15.1896 27.0407 15.4371C27.1871 15.6846 27.2808 15.9597 27.316 16.2451C27.3539 16.5328 27.3331 16.8309 27.2562 17.1186C27.128 17.5972 26.5383 17.6883 26.1329 17.3978L24.064 15.9175C23.6586 15.627 23.5636 15.0459 23.9862 14.7801C24.2392 14.6206 24.5201 14.5105 24.8141 14.4553C25.102 14.4 25.3981 14.4033 25.6848 14.4648C25.9677 14.5237 26.2326 14.6424 26.4652 14.8066ZM20.8899 23.4355C20.3915 23.268 19.8521 23.268 19.3537 23.4355C19.0783 23.5295 18.8391 23.6747 18.8543 23.8931C18.8818 24.2283 19.4144 24.8018 19.799 24.9205C20.0344 24.9917 20.1826 24.9869 20.4446 24.9205C20.8301 24.8217 21.3656 24.2283 21.3903 23.8931C21.4074 23.6747 21.1653 23.5295 20.8899 23.4355ZM17.7453 21.9097C17.9409 22.0227 18.1127 22.1755 18.2504 22.3569C18.3881 22.5392 18.4906 22.749 18.5504 22.975C18.6511 23.35 18.2827 23.633 17.8924 23.5883L16.9002 23.4744L15.9137 23.3643C15.5244 23.3196 15.2339 22.9607 15.4162 22.618C15.5258 22.4138 15.6738 22.2326 15.852 22.0844C16.0296 21.9363 16.2318 21.828 16.4473 21.7615C16.6623 21.6961 16.8884 21.6756 17.1117 21.701C17.3349 21.7265 17.5506 21.7975 17.7453 21.9097ZM24.3584 22.0492C24.1808 21.9021 23.9786 21.7929 23.763 21.7264C23.5481 21.661 23.322 21.6404 23.0987 21.6659C22.8755 21.6914 22.6598 21.7624 22.4651 21.8745C22.2695 21.9885 22.0977 22.1404 21.96 22.3227C21.8213 22.5076 21.7194 22.7174 21.6599 22.9408C21.5593 23.3149 21.9268 23.5978 22.3151 23.5542L23.3082 23.4402L24.2957 23.3301C24.6869 23.2855 24.9765 22.9266 24.7942 22.5838C24.6827 22.3805 24.535 22.1993 24.3584 22.0492Z" fill="url(#paint0_linear_33765_42578)"/>
</g>
<rect x="1" y="1" width="38" height="38" rx="19" stroke="#F8BE40" stroke-width="2"/>
<defs>
<linearGradient id="paint0_linear_33765_42578" x1="42.6281" y1="21.0039" x2="-1.27081" y2="21.6647" gradientUnits="userSpaceOnUse">
<stop stop-color="#F8F29C"/>
<stop offset="0.165" stop-color="#F6DB2A"/>
<stop offset="0.333" stop-color="#F4A435"/>
<stop offset="0.55" stop-color="#E85A46"/>
<stop offset="0.699" stop-color="#B93483"/>
<stop offset="0.867" stop-color="#502B6E"/>
<stop offset="1" stop-color="#2A2136"/>
</linearGradient>
<clipPath id="clip0_33765_42578">
<rect width="40" height="40" rx="20" fill="white"/>
</clipPath>
</defs>
</svg>

<svg xmlns="http://www.w3.org/2000/svg" fill="none" viewBox="0 0 40 40"><g clip-path="url(#a)"><path fill="#000" d="M20 40c11.046 0 20-8.954 20-20S31.046 0 20 0 0 8.954 0 20s8.954 20 20 20"/><path fill="#000" stroke="#C63E73" stroke-width=".5" d="M35.586 20c0 8.608-6.978 15.586-15.586 15.586S4.414 28.608 4.414 20 11.392 4.414 20 4.414 35.586 11.392 35.586 20Z"/><path fill="url(#b)" fill-rule="evenodd" d="M30.343 16.31a4.92 4.92 0 0 1-1.291 3.375.34.34 0 0 0-.086.285c.554 3.11-.262 5.668-1.94 7.491-1.764 1.913-4.35 2.866-6.86 2.918h-.09c-2.508-.052-5.095-1.006-6.859-2.919-1.678-1.822-2.493-4.38-1.94-7.49a.34.34 0 0 0-.086-.285 4.92 4.92 0 0 1-.798-5.461c.886-1.833 3.127-3.264 5.421-2.785q.114.024.277.071c.341.1.655.273.93.494.614.489 1.74.816 3.028.816h.146c1.287 0 2.413-.326 3.026-.816a2.75 2.75 0 0 1 1.209-.565c2.294-.478 4.534.953 5.42 2.785a4.9 4.9 0 0 1 .493 2.086m-15.055-1.855c.293.054.573.166.828.325.422.266.328.847-.077 1.138l-2.07 1.48c-.404.29-.995.2-1.122-.278a2.3 2.3 0 0 1-.06-.874c.038-.291.133-.567.277-.814.146-.246.34-.46.573-.624a2.17 2.17 0 0 1 1.651-.352m11.177.352a2.1 2.1 0 0 1 .851 1.438c.038.288.017.586-.06.874-.128.478-.718.57-1.123.279l-2.069-1.48c-.405-.291-.5-.872-.078-1.138.253-.16.534-.27.828-.325.288-.055.584-.052.87.01.284.059.549.177.781.342m-5.575 8.629a2.4 2.4 0 0 0-1.536 0c-.276.093-.515.239-.5.457.028.335.56.909.945 1.027.235.072.384.067.646 0 .385-.098.92-.692.945-1.027.017-.218-.225-.364-.5-.457m-3.145-1.526c.196.113.368.265.505.447.138.182.24.392.3.618.101.375-.267.658-.658.613l-.992-.114-.986-.11c-.39-.044-.68-.403-.498-.746.11-.204.258-.385.436-.534a1.7 1.7 0 0 1 .595-.322 1.64 1.64 0 0 1 1.298.148m6.613.14a1.7 1.7 0 0 0-.595-.324 1.64 1.64 0 0 0-1.298.149 1.7 1.7 0 0 0-.505.448c-.139.185-.24.394-.3.618-.1.374.267.657.655.613l.993-.114.988-.11c.39-.044.68-.403.498-.746a1.9 1.9 0 0 0-.436-.535" clip-rule="evenodd"/></g><rect width="38" height="38" x="1" y="1" stroke="#F8BE40" stroke-width="2" rx="19"/><defs><linearGradient id="b" x1="42.628" x2="-1.271" y1="21.004" y2="21.665" gradientUnits="userSpaceOnUse"><stop stop-color="#F8F29C"/><stop offset=".165" stop-color="#F6DB2A"/><stop offset=".333" stop-color="#F4A435"/><stop offset=".55" stop-color="#E85A46"/><stop offset=".699" stop-color="#B93483"/><stop offset=".867" stop-color="#502B6E"/><stop offset="1" stop-color="#2A2136"/></linearGradient><clipPath id="a"><rect width="40" height="40" fill="#fff" rx="20"/></clipPath></defs></svg>
